X: 129011
T: CHINESE DANCE
%R: reel
B: James Kerr "Merry Melodies" v.1 p.29 s.0 #11
Z: 2016 John Chambers <jc:trillian.mit.edu>
M: 2/4
L: 1/16
K: A
vcB |\
A2a2g2f2 | efed c2e2 |\
c2e2c2e2 | d2B2B2 (cB) |\
A2a2g2f2 | efed c2e2 |\
c2e2 dcdB | A2c2A2 H:|
|: (BA) |\
G2B2G2B2 | G2B2 dcdB |\
A2c2A2c2 | A2c2 e2(fg) |\
a2a2e2 (fg) | a2a2e2 (fg) |\
a2e2d2c2 | BABc Bdc"_D.C."B |]

%%sep 1 1 500
%%sep 1 1 500

